X:6
T: Red Parrot, Green Parrot
C: Edward Huws Jones
M: 4/4
K: D
L: 1/4
Q:  1/4=116 Lively
!mf! D2 D D | E2 E E | F2 E D | E2 z2 | D2 D D |
w: Red par-rot, green par-rot, perch on a tree, red par-rot,
E2 E E | F2 E2 | D2 z2 !fine! |] !f!vA2 A A | A z z2 |
w: green par-rot, fly-ing free. Red par-rot squawk,
!p!vA2 A A | A z z2 | !f!e2 e e | A2 A2 | !diminuendo(! D D D D |
w: green par-rot squawk, some par-rots talk but these ones on-ly
!diminuendo)! G,2 z2 | !mf!D2 D D | E2 E E | F2 E D |
w: squawk. Red par-rot green par-rot, perched in a
E2 z2 | D2 D D |E2 E E | F2 E2
w: tree, Red par-rot, green par-rot, fly-ing
D2 z2 || z4 | z2 (f{a'}) | z4 | z2 | (f{a'}) |
!f!ve2 e e | A2 A2 | !diminuendo(! D D D D  | G,2 !diminuendo)! z2 !dcalfine! |

